X:1
T:Title
%%score 1 { 2 | 3 }
L:1/8
Q:1/4=107
M:4/4
K:F
V:1 treble nm="Grand Piano, Soprano"
V:2 treble nm="Choir Pad, Field Club, 87.87 D"
V:3 bass 
V:1
 [FA]2 F2 [FA]2 F2 | [FA]2 [Fc]2 [FA]2 [EG]2 | [GB]2 [EG]2 [GB]2 [EG]2 | [FA]2 [Fd]2 [Fc]4 | %4
w: By~B.~S.~Dise,~1893 * * *||||
 [FA]2 F2 [FA]2 F2 | [FA]2 [Fc]2 [FA]2 [EG]2 | [FA]2 [FA]2 [EG]2 [EG]2 | [F=B]2 [FB]2 [Ec]4 | %8
w: ||||
 [GB]2 [GB]2 [FA]2 [EG]2 | [FA]2 [Fd]2 [Fc]2 [FA]2 | [FA]2 [Fc]2 [Fd]2 [Fc]2 | [EB]2 [FA]2 [EG]4 | %12
w: ||||
 [FA]2 F2 [FA]2 F2 | [FA]2 [Fc]2 [FA]2 [EG]2 | [FA]2 [Fc]2 [DB]2 [DG]2 | [CF]2 [CE]2 [CF]4- | %16
w: ||||
 [CF]4 z4 |] %17
w: |
V:2
 C2 A,2 C2 A,2 | C2 A,2 C2 C2 | C2 C2 C2 C2 | C2[K:bass] B,2 A,4 | C2 A,2 C2 A,2 | C2 A,2 C2 C2 | %6
 C2 C2 C2 C2 | D2 G,2 G,4 | C2 C2 C2 C2 | C2[K:bass] B,2 A,2 C2 | C2 A,2 B,2[K:treble] C2 | %11
 C2 C2 C4 | C2[K:bass] A,2 C2 A,2 | C2 A,2[K:treble] C2 C2 | C2 A,2 B,2[K:bass] B,2 | %15
 A,2 G,2 A,4- | A,4 z4 |] %17
V:3
 F,2 F,2 F,2 F,2 | F,2 F,2 C,2 C,2 | C,2 C,2 C,2 C,2 | F,2 F,2 F,4 | F,2 F,2 F,2 F,2 | %5
 F,2 F,2 C,2 C,2 | F,2 F,2 F,2 F,2 | G,,2 G,,2 C,4 | C,2 C,2 C,2 C,2 | F,2 F,2 F,2 F,2 | %10
 F,2 F,2 z2 A,2 | G,2 F,2 C,4 | F,2 F,2 F,2 F,2 | F,2 F,2 C,2 C,2 | F,2 F,2 B,,2 B,,2 | %15
 C,2 C,2 F,4- | F,4 z4 |] %17

